**kern	**silbe	**harmony	**chordsym	**phrase	**timestamp	**leadinstrument
*ICvox	*	*M4/4	*M4/4	*	*	*
*A:	*	*A:	*A:	*	*	*
*M4/4	*	*	*	*	*	*
*clefF4	*	*	*	*	*	*
r;	.	1r;	r	.	0	r
=1	=1	=1	=1	=1	=1	=1
*	*	*>A_intro	*>A_intro	*>A_intro	*>A_intro	*>A_intro
1r	.	1AM	A:maj (A C# E)	newline	0.395	guitar
=2	=2	=2	=2	=2	=2	=2
1r	.	1EM	E:maj (E G# B)	.	.	guitar
=3	=3	=3	=3	=3	=3	=3
1r	.	1F#m	F#:min (F# A C#)	.	.	guitar
=4	=4	=4	=4	=4	=4	=4
1r	.	1DM	D:maj (D F# A)	.	.	guitar
=5	=5	=5	=5	=5	=5	=5
1r	.	1AM	A:maj (A C# E)	newline	7.852	guitar
=6	=6	=6	=6	=6	=6	=6
1r	.	1EM	E:maj (E G# B)	.	.	guitar
=7	=7	=7	=7	=7	=7	=7
1r	.	1F#m	F#:min (F# A C#)	.	.	guitar
=8	=8	=8	=8	=8	=8	=8
2r	.	1DM	D:maj (D F# A)	.	.	guitar
4r	.	.	.	.	.	.
8r	.	.	.	.	.	.
8[A	We	.	.	.	.	.
=9	=9	=9	=9	=9	=9	=9
*	*	*>A_verse	*>A_verse	*>A_verse	*>A_verse	*>A_verse
8A]	_	1AM	A:maj (A C# E)	newline	15.312	voice
8A	get	.	.	.	.	.
8A	in	.	.	.	.	.
8A	the	.	.	.	.	.
4.A	car	.	.	.	.	.
8[B	out	.	.	.	.	.
=10	=10	=10	=10	=10	=10	=10
8B]	_	1EM	E:maj (E G# B)	.	.	voice
8B	side	.	.	.	.	.
8B	your	.	.	.	.	.
8[B	house	.	.	.	.	.
4B]	_	.	.	.	.	.
8B	oh	.	.	.	.	.
8[c#	_	.	.	.	.	.
=11	=11	=11	=11	=11	=11	=11
4c#]	_	1F#m	F#:min (F# A C#)	.	.	voice
8c#	I	.	.	.	.	.
8c#	can	.	.	.	.	.
8c#	feel	.	.	.	.	.
8c	the	.	.	.	.	.
8c#	heat	.	.	.	.	.
8c	a	.	.	.	.	.
=12	=12	=12	=12	=12	=12	=12
8c#	com	1DM	D:maj (D F# A)	.	.	voice
8c#	in'	.	.	.	.	.
8B	_	.	.	.	.	.
8[A	round	.	.	.	.	.
2A]	_	.	.	.	.	.
=13	=13	=13	=13	=13	=13	=13
8r	.	1AM	A:maj (A C# E)	newline	22.547	voice
8A	I	.	.	.	.	.
8A	go	.	.	.	.	.
8A	to	.	.	.	.	.
8A	put	.	.	.	.	.
4A	my	.	.	.	.	.
8[B	arm	.	.	.	.	.
=14	=14	=14	=14	=14	=14	=14
4B]	_	1EM	E:maj (E G# B)	.	.	voice
8B	a	.	.	.	.	.
8[B	round	.	.	.	.	.
8B]	_	.	.	.	.	.
8A	you	.	.	.	.	.
8A	and	.	.	.	.	.
8A	you	.	.	.	.	.
=15	=15	=15	=15	=15	=15	=15
8r	.	1F#m	F#:min (F# A C#)	.	.	voice
8c#	give	.	.	.	.	.
8c#	me	.	.	.	.	.
8c	a	.	.	.	.	.
8c#	look	.	.	.	.	.
8c	a	.	.	.	.	.
8c#	like	.	.	.	.	.
8c	I'm	.	.	.	.	.
=16	=16	=16	=16	=16	=16	=16
8c#	way	1DM	D:maj (D F# A)	.	.	voice
8c#	out	.	.	.	.	.
8B	of	.	.	.	.	.
8[A	bounds	.	.	.	.	.
4A]	_	.	.	.	.	.
8F#	well	.	.	.	.	.
8E	_	.	.	.	.	.
=17	=17	=17	=17	=17	=17	=17
8r	.	1AM	A:maj (A C# E)	newline	29.833	voice
8A	you	.	.	.	.	.
8A	let	.	.	.	.	.
8A	out	.	.	.	.	.
8A	one	.	.	.	.	.
4A	of	.	.	.	.	.
8[B	your	.	.	.	.	.
=18	=18	=18	=18	=18	=18	=18
8B]	_	1EM	E:maj (E G# B)	.	.	voice
4.B	bored	.	.	.	.	.
4B	sighs	.	.	.	.	.
4r	.	.	.	.	.	.
=19	=19	=19	=19	=19	=19	=19
8r	.	1F#m	F#:min (F# A C#)	.	.	voice
8c#	Well	.	.	.	.	.
8c#	late	.	.	.	.	.
8c#	ly	.	.	.	.	.
8c#	when	.	.	.	.	.
8c	I	.	.	.	.	.
8c#	look	.	.	.	.	.
8c	in	.	.	.	.	.
=20	=20	=20	=20	=20	=20	=20
8c#	to	1DM	D:maj (D F# A)	.	.	voice
4c#	your	.	.	.	.	.
8[A	eyes	.	.	.	.	.
8A]	_	.	.	.	.	.
8A	I'm	.	.	.	.	.
8B	go	.	.	.	.	.
8A	ing	.	.	.	.	.
=21	=21	=21	=21	=21	=21	=21
*	*	*>B_chorus	*>B_chorus	*>B_chorus	*>B_chorus	*>B_chorus
4.A	down	1AM	A:maj (A C# E)	newline	37.063	voice
8[A	down	.	.	.	.	.
4A]	_	.	.	.	.	.
4[A	down	.	.	.	.	.
=22	=22	=22	=22	=22	=22	=22
8A]	_	1EM	E:maj (E G# B)	.	.	voice
4.A	down	.	.	.	.	.
8r	.	.	.	.	.	.
8B	I'm	.	.	.	.	.
8B	go	.	.	.	.	.
8A	ing	.	.	.	.	.
=23	=23	=23	=23	=23	=23	=23
4.A	down	1F#m	F#:min (F# A C#)	.	.	voice
8[A	down	.	.	.	.	.
4A]	_	.	.	.	.	.
4[A	down	.	.	.	.	.
=24	=24	=24	=24	=24	=24	=24
8A]	_	1DM	D:maj (D F# A)	.	.	voice
4.A	down	.	.	.	.	.
8r	.	.	.	.	.	.
8B	I'm	.	.	.	.	.
8B	go	.	.	.	.	.
8A	ing	.	.	.	.	.
=25	=25	=25	=25	=25	=25	=25
4.A	down	1AM	A:maj (A C# E)	newline	44.355	voice
8[A	down	.	.	.	.	.
4A]	_	.	.	.	.	.
4[B	down	.	.	.	.	.
=26	=26	=26	=26	=26	=26	=26
8B]	_	1EM	E:maj (E G# B)	.	.	voice
4.B	down	.	.	.	.	.
8r	.	.	.	.	.	.
8c#	I'm	.	.	.	.	.
8c#	go	.	.	.	.	.
8B	ing	.	.	.	.	.
=27	=27	=27	=27	=27	=27	=27
4.A	down	1F#m	F#:min (F# A C#)	.	.	voice
8[A	down	.	.	.	.	.
4A]	_	.	.	.	.	.
4[A	down	.	.	.	.	.
=28	=28	=28	=28	=28	=28	=28
8A]	_	1DM	D:maj (D F# A)	.	.	voice
4.A	down	.	.	.	.	.
2r	.	.	.	.	.	.
=29	=29	=29	=29	=29	=29	=29
*	*	*>A_verse	*>A_verse	*>A_verse	*>A_verse	*>A_verse
8r	.	1AM	A:maj (A C# E)	newline	51.597	voice
8A	We	.	.	.	.	.
8A	get	.	.	.	.	.
8[A	dresssed	.	.	.	.	.
4.A]	_	.	.	.	.	.
8[B	up	.	.	.	.	.
=30	=30	=30	=30	=30	=30	=30
4B]	_	1EM	E:maj (E G# B)	.	.	voice
8B	and	.	.	.	.	.
4B	we	.	.	.	.	.
8B	go	.	.	.	.	.
4A	_	.	.	.	.	.
=31	=31	=31	=31	=31	=31	=31
4r	.	1F#m	F#:min (F# A C#)	.	.	voice
4c#	out	.	.	.	.	.
4r	.	.	.	.	.	.
8c#	ba	.	.	.	.	.
8c#	by	.	.	.	.	.
=32	=32	=32	=32	=32	=32	=32
8c#	for	1DM	D:maj (D F# A)	.	.	voice
4B	the	.	.	.	.	.
8[A	night	.	.	.	.	.
4A]	_	.	.	.	.	.
4r	.	.	.	.	.	.
=33	=33	=33	=33	=33	=33	=33
8r	.	1AM	A:maj (A C# E)	newline	58.862	voice
8A	we	.	.	.	.	.
8A	come	.	.	.	.	.
4A	home	.	.	.	.	.
8A	ear	.	.	.	.	.
8A	ly	.	.	.	.	.
8[B	burn	.	.	.	.	.
=34	=34	=34	=34	=34	=34	=34
4B]	_	1EM	E:maj (E G# B)	.	.	voice
8B	ing	.	.	.	.	.
4c#	burn	.	.	.	.	.
8[A	ing	.	.	.	.	.
4A]	_	.	.	.	.	.
=35	=35	=35	=35	=35	=35	=35
4r	.	1F#m	F#:min (F# A C#)	.	.	voice
8c#	burn	.	.	.	.	.
8c#	ing	.	.	.	.	.
4c#	in	.	.	.	.	.
4c#	some	.	.	.	.	.
=36	=36	=36	=36	=36	=36	=36
8c#	fi	1DM	D:maj (D F# A)	.	.	voice
8c#	re	.	.	.	.	.
8B	_	.	.	.	.	.
8[A	fight	.	.	.	.	.
4A]	_	.	.	.	.	.
4r	.	.	.	.	.	.
=37	=37	=37	=37	=37	=37	=37
8r	.	1AM	A:maj (A C# E)	newline	66.109	voice
8A	I'm	.	.	.	.	.
8A	sick	.	.	.	.	.
8A	and	.	.	.	.	.
4A	tired	.	.	.	.	.
8A	of	.	.	.	.	.
8A	you	.	.	.	.	.
=38	=38	=38	=38	=38	=38	=38
8B	set	1EM	E:maj (E G# B)	.	.	voice
8B	ting	.	.	.	.	.
8B	me	.	.	.	.	.
4B	up	.	.	.	.	.
8[A	_	.	.	.	.	.
4A]	_	.	.	.	.	.
=39	=39	=39	=39	=39	=39	=39
8r	.	1F#m	F#:min (F# A C#)	.	.	voice
8c#	Set'n	.	.	.	.	.
8c#	me	.	.	.	.	.
4c#	up	.	.	.	.	.
8c#	by	.	.	.	.	.
8c#	just	.	.	.	.	.
8c#	a	.	.	.	.	.
=40	=40	=40	=40	=40	=40	=40
8c#	knock	1DM	D:maj (D F# A)	.	.	voice
8c	a	.	.	.	.	.
8c#	knock	.	.	.	.	.
8c	a	.	.	.	.	.
8c#	knock	.	.	.	.	.
8c#	in	.	.	.	.	.
8B	me	.	.	.	.	.
8[A	down	.	.	.	.	.
=41	=41	=41	=41	=41	=41	=41
*	*	*>B_chorus	*>B_chorus	*>B_chorus	*>B_chorus	*>B_chorus
4.A]	_	1AM	A:maj (A C# E)	newline	73.324	voice
8[A	down	.	.	.	.	.
4A]	_	.	.	.	.	.
4[A	down	.	.	.	.	.
=42	=42	=42	=42	=42	=42	=42
8A]	_	1EM	E:maj (E G# B)	.	.	voice
4.A	down	.	.	.	.	.
8r	.	.	.	.	.	.
8B	I'm	.	.	.	.	.
8B	go	.	.	.	.	.
8A	in	.	.	.	.	.
=43	=43	=43	=43	=43	=43	=43
4.A	down	1F#m	F#:min (F# A C#)	.	.	voice
8[A	down	.	.	.	.	.
4A]	_	.	.	.	.	.
4[A	down	.	.	.	.	.
=44	=44	=44	=44	=44	=44	=44
8A]	_	1DM	D:maj (D F# A)	.	.	voice
4.A	down	.	.	.	.	.
8r	.	.	.	.	.	.
8B	I'm	.	.	.	.	.
8B	go	.	.	.	.	.
8A	in	.	.	.	.	.
=45	=45	=45	=45	=45	=45	=45
4.A	down	1AM	A:maj (A C# E)	newline	80.538	voice
8[A	down	.	.	.	.	.
4A]	_	.	.	.	.	.
4[B	down	.	.	.	.	.
=46	=46	=46	=46	=46	=46	=46
8B]	_	1EM	E:maj (E G# B)	.	.	voice
4.B	down	.	.	.	.	.
8r	.	.	.	.	.	.
8c#	I'm	.	.	.	.	.
8c#	go	.	.	.	.	.
8B	in	.	.	.	.	.
=47	=47	=47	=47	=47	=47	=47
4.A	down	1F#m	F#:min (F# A C#)	.	.	voice
8[A	down	.	.	.	.	.
4A]	_	.	.	.	.	.
4[A	down	.	.	.	.	.
=48	=48	=48	=48	=48	=48	=48
8A]	_	1DM	D:maj (D F# A)	.	.	voice
4.A	down	.	.	.	.	.
2r	.	.	.	.	.	.
=49	=49	=49	=49	=49	=49	=49
*	*	*>B_solo	*>B_solo	*>B_solo	*>B_solo	*>B_solo
1r	.	1AM	A:maj (A C# E)	newline	87.809	saxophone
=50	=50	=50	=50	=50	=50	=50
1r	.	1EM	E:maj (E G# B)	.	.	saxophone
=51	=51	=51	=51	=51	=51	=51
1r	.	1F#m	F#:min (F# A C#)	.	.	saxophone
=52	=52	=52	=52	=52	=52	=52
1r	.	1DM	D:maj (D F# A)	.	.	saxophone
=53	=53	=53	=53	=53	=53	=53
1r	.	1AM	A:maj (A C# E)	newline	95.083	saxophone
=54	=54	=54	=54	=54	=54	=54
1r	.	1EM	E:maj (E G# B)	.	.	saxophone
=55	=55	=55	=55	=55	=55	=55
1r	.	1F#m	F#:min (F# A C#)	.	.	saxophone
=56	=56	=56	=56	=56	=56	=56
1r	.	1DM	D:maj (D F# A)	.	.	saxophone
=57	=57	=57	=57	=57	=57	=57
*	*	*>A_verse	*>A_verse	*>A_verse	*>A_verse	*>A_verse
8r	.	1AM	A:5 (A E)	newline	102.379	voice
4A	I	.	.	.	.	.
4.A	pull	.	.	.	.	.
8A	you	.	.	.	.	.
8[B	close	.	.	.	.	.
=58	=58	=58	=58	=58	=58	=58
8B]	_	1EM	E:5 (E B)	.	.	voice
4B	now	.	.	.	.	.
8B	ba-	.	.	.	.	.
4A	_	.	.	.	.	.
8A	-by	.	.	.	.	.
8r	.	.	.	.	.	.
=59	=59	=59	=59	=59	=59	=59
8r	.	1F#m	F#:5 (F# C#)	.	.	voice
8c#	but	.	.	.	.	.
8c#	when	.	.	.	.	.
8c	we	.	.	.	.	.
4c#	kiss	.	.	.	.	.
8c#	I	.	.	.	.	.
8c	can	.	.	.	.	.
=60	=60	=60	=60	=60	=60	=60
8c#	feel	1DM	D:5 (D A)	.	.	voice
8c#	a	.	.	.	.	.
8B	_	.	.	.	.	.
8[A	doubt	.	.	.	.	.
4A]	_	.	.	.	.	.
4r	.	.	.	.	.	.
=61	=61	=61	=61	=61	=61	=61
4r	.	1AM	A:5 (A E)	newline	109.621	voice
8A	I	.	.	.	.	.
8A	re	.	.	.	.	.
8A	mem	.	.	.	.	.
8A	ber	.	.	.	.	.
8A	back	.	.	.	.	.
8[B	when	.	.	.	.	.
=62	=62	=62	=62	=62	=62	=62
8B]	_	1EM	E:5 (E B)	.	.	voice
4B	we	.	.	.	.	.
8[c#	start	.	.	.	.	.
8c#]	_	.	.	.	.	.
4.A	ed	.	.	.	.	.
=63	=63	=63	=63	=63	=63	=63
8r	.	1F#m	F#:5 (F# C#)	.	.	voice
8c#	my	.	.	.	.	.
8c#	kiss	.	.	.	.	.
8c	es	.	.	.	.	.
8c#	used	.	.	.	.	.
8c	to	.	.	.	.	.
8c#	turn	.	.	.	.	.
8c	you	.	.	.	.	.
=64	=64	=64	=64	=64	=64	=64
8c#	in	1DM	D:5 (D A)	.	.	voice
8c#	side	.	.	.	.	.
8B	_	.	.	.	.	.
4.A	out	.	.	.	.	.
8F#	well	.	.	.	.	.
8E	_	.	.	.	.	.
=65	=65	=65	=65	=65	=65	=65
8r	.	1AM	A:5 (A E)	newline	116.825	voice
8A	I	.	.	.	.	.
8A	used	.	.	.	.	.
8A	to	.	.	.	.	.
4A	drive	.	.	.	.	.
8A	you	.	.	.	.	.
8A	to	.	.	.	.	.
=66	=66	=66	=66	=66	=66	=66
8B	work	1EM	E:5 (E B)	.	.	voice
8B	in	.	.	.	.	.
8B	the	.	.	.	.	.
4c#	morn	.	.	.	.	.
8[A	ing	.	.	.	.	.
4A]	_	.	.	.	.	.
=67	=67	=67	=67	=67	=67	=67
4r	.	1F#m	F#:5 (F# C#)	.	.	voice
8c#	Fri	.	.	.	.	.
8c#	day	.	.	.	.	.
8c#	night	.	.	.	.	.
8c	I'd	.	.	.	.	.
8c#	drive	.	.	.	.	.
8c	you	.	.	.	.	.
=68	=68	=68	=68	=68	=68	=68
8c#	all	1DM	D:5 (D A)	.	.	voice
8c#	a	.	.	.	.	.
8B	_	.	.	.	.	.
8[A	round	.	.	.	.	.
4A]	_	.	.	.	.	.
8F#	well	.	.	.	.	.
8E	_	.	.	.	.	.
=69	=69	=69	=69	=69	=69	=69
8r	.	1AM	A:5 (A E)	newline	124.066	voice
8A	You	.	.	.	.	.
8A	used	.	.	.	.	.
8A	to	.	.	.	.	.
4A	love	.	.	.	.	.
8A	to	.	.	.	.	.
8[B	drive	.	.	.	.	.
=70	=70	=70	=70	=70	=70	=70
4B]	_	1EM	E:5 (E B)	.	.	voice
8B	me	.	.	.	.	.
8[c#	wild	.	.	.	.	.
4c#]	_	.	.	.	.	.
8B	yeah	.	.	.	.	.
8A	_	.	.	.	.	.
=71	=71	=71	=71	=71	=71	=71
8r	.	1F#m	F#:5 (F# C#)	.	.	voice
8c#	but	.	.	.	.	.
8c#	late	.	.	.	.	.
8c#	ly	.	.	.	.	.
8c#	girl	.	.	.	.	.
8c	you	.	.	.	.	.
8c#	get	.	.	.	.	.
8c	your	.	.	.	.	.
=72	=72	=72	=72	=72	=72	=72
8c#	kicks	1DM	D:5 (D A)	.	.	voice
8c	from	.	.	.	.	.
8c#	just	.	.	.	.	.
8c	a	.	.	.	.	.
8c#	dri	.	.	.	.	.
8c	vin	.	.	.	.	.
8B	me	.	.	.	.	.
8[A	down	.	.	.	.	.
=73	=73	=73	=73	=73	=73	=73
*	*	*>B_chorus	*>B_chorus	*>B_chorus	*>B_chorus	*>B_chorus
4.A]	_	1AM	A:maj (A C# E)	newline	131.219	voice
8[A	down	.	.	.	.	.
4A]	_	.	.	.	.	.
4[A	down	.	.	.	.	.
=74	=74	=74	=74	=74	=74	=74
8A]	_	1EM	E:maj (E G# B)	.	.	voice
4.A	down	.	.	.	.	.
8r	.	.	.	.	.	.
8B	I'm	.	.	.	.	.
8B	go	.	.	.	.	.
8A	ing	.	.	.	.	.
=75	=75	=75	=75	=75	=75	=75
4.A	down	1F#m	F#:min (F# A C#)	.	.	voice
8[A	down	.	.	.	.	.
4A]	_	.	.	.	.	.
4[A	down	.	.	.	.	.
=76	=76	=76	=76	=76	=76	=76
8A]	_	1DM	D:maj (D F# A)	.	.	voice
4.A	down	.	.	.	.	.
8r	.	.	.	.	.	.
8B	I'm	.	.	.	.	.
8B	go	.	.	.	.	.
8A	ing	.	.	.	.	.
=77	=77	=77	=77	=77	=77	=77
4.A	down	1AM	A:maj (A C# E)	newline	138.438	voice
8[A	down	.	.	.	.	.
4A]	_	.	.	.	.	.
4[B	down	.	.	.	.	.
=78	=78	=78	=78	=78	=78	=78
8B]	_	1EM	E:maj (E G# B)	.	.	voice
4.B	down	.	.	.	.	.
8r	.	.	.	.	.	.
8c#	I'm	.	.	.	.	.
8c#	go	.	.	.	.	.
8B	in	.	.	.	.	.
=79	=79	=79	=79	=79	=79	=79
4.A	down	1F#m	F#:min (F# A C#)	.	.	voice
8[A	down	.	.	.	.	.
4A]	_	.	.	.	.	.
4[A	down	.	.	.	.	.
=80	=80	=80	=80	=80	=80	=80
8A]	_	1DM	D:maj (D F# A)	.	.	voice
4.A	_	.	.	.	.	.
8r	.	.	.	.	.	.
8B	I'm	.	.	.	.	.
8B	go	.	.	.	.	.
8A	ing	.	.	.	.	.
=81	=81	=81	=81	=81	=81	=81
*	*	*>B_chorus	*>B_chorus	*>B_chorus	*>B_chorus	*>B_chorus
4.A	down	1AM	A:5 (A E)	newline	145.727	voice
8[A	down	.	.	.	.	.
4A]	_	.	.	.	.	.
4[A	down	.	.	.	.	.
=82	=82	=82	=82	=82	=82	=82
8A]	_	1EM	E:5 (E B)	.	.	voice
4.A	down	.	.	.	.	.
8r	.	.	.	.	.	.
8B	I'm	.	.	.	.	.
8B	go	.	.	.	.	.
8A	ing	.	.	.	.	.
=83	=83	=83	=83	=83	=83	=83
4.A	down	1F#m	F#:5 (F# C#)	.	.	voice
8[A	down	.	.	.	.	.
4A]	_	.	.	.	.	.
4[A	down	.	.	.	.	.
=84	=84	=84	=84	=84	=84	=84
8A]	_	1DM	D:5 (D A)	.	.	voice
4.A	down	.	.	.	.	.
8r	.	.	.	.	.	.
8B	I'm	.	.	.	.	.
8B	go	.	.	.	.	.
8A	ing	.	.	.	.	.
=85	=85	=85	=85	=85	=85	=85
4.A	down	1AM	A:5 (A E)	newline	152.926	voice
8[A	down	.	.	.	.	.
4A]	_	.	.	.	.	.
4[B	down	.	.	.	.	.
=86	=86	=86	=86	=86	=86	=86
8B]	_	1EM	E:5 (E B)	.	.	voice
4.B	down	.	.	.	.	.
8r	.	.	.	.	.	.
8c#	I'm	.	.	.	.	.
8c#	go	.	.	.	.	.
8B	ing	.	.	.	.	.
=87	=87	=87	=87	=87	=87	=87
4.A	down	1F#m	F#:5 (F# C#)	.	.	voice
8[c#	down	.	.	.	.	.
8c#]	_	.	.	.	.	.
8c#	a	.	.	.	.	.
8c#	da	.	.	.	.	.
8c#	ba	.	.	.	.	.
=88	=88	=88	=88	=88	=88	=88
8c#	do	1DM	D:5 (D A)	.	.	voice
8c#	da	.	.	.	.	.
8B	_	.	.	.	.	.
8A	down	.	.	.	.	.
8r	.	.	.	.	.	.
8B	I'm	.	.	.	.	.
8B	go	.	.	.	.	.
8A	ing	.	.	.	.	.
=89	=89	=89	=89	=89	=89	=89
*	*	*>B_chorus	*>B_chorus	*>B_chorus	*>B_chorus	*>B_chorus
4.A	down	1AM	A:maj (A C# E)	newline	160.105	voice
8[e	down	.	.	.	.	.
4e]	_	.	.	.	.	.
4[B	down	.	.	.	.	.
=90	=90	=90	=90	=90	=90	=90
8B]	_	1EM	E:maj (E G# B)	.	.	voice
4.B	down	.	.	.	.	.
8r	.	.	.	.	.	.
8c#	I'm	.	.	.	.	.
8c#	go	.	.	.	.	.
8B	ing	.	.	.	.	.
=91	=91	=91	=91	=91	=91	=91
4.A	down	1F#m	F#:min (F# A C#)	.	.	voice
8[c#	hey	.	.	.	.	.
8c#]	_	.	.	.	.	.
8c#	a	.	.	.	.	.
8c#	bap	.	.	.	.	.
8c#	a	.	.	.	.	.
=92	=92	=92	=92	=92	=92	=92
8c#	do	1DM	D:maj (D F# A)	.	.	voice
8c#	dah	.	.	.	.	.
8B	_	.	.	.	.	.
8A	down	.	.	.	.	.
8r	.	.	.	.	.	.
8B	I'm	.	.	.	.	.
8B	go	.	.	.	.	.
8A	in	.	.	.	.	.
=93	=93	=93	=93	=93	=93	=93
4.A	down	1AM	A:maj (A C# E)	newline	167.375	voice
8[e	down	.	.	.	.	.
4e]	_	.	.	.	.	.
4[B	down	.	.	.	.	.
=94	=94	=94	=94	=94	=94	=94
8B]	_	1EM	E:maj (E G# B)	.	.	voice
8r	.	.	.	.	.	.
4c#	hey	.	.	.	.	.
8r	.	.	.	.	.	.
8c#	I'm	.	.	.	.	.
8c#	go	.	.	.	.	.
8B	ing	.	.	.	.	.
=95	=95	=95	=95	=95	=95	=95
4.A	down	1F#m	F#:min (F# A C#)	.	.	voice
8[A	down	.	.	.	.	.
8A]	_	.	.	.	.	.
8c#	hey	.	.	.	.	.
8c#	bap	.	.	.	.	.
8B	a	.	.	.	.	.
=96	=96	=96	=96	=96	=96	=96
8r	.	1DM	D:maj (D F# A)	.	.	voice
8c#	hey	.	.	.	.	.
8c#	bap	.	.	.	.	.
8c#	a	.	.	.	.	.
8c#	do	.	.	.	.	.
8c#	dah	.	.	.	.	.
8B	_	.	.	.	.	.
8A	down	.	.	.	.	.
=97	=97	=97	=97	=97	=97	=97
*	*	*>B_solo	*>B_solo	*>B_solo	*>B_solo	*>B_solo
4r	.	1AM	A:maj (A C# E)	newline	174.586	piano
8r	.	.	.	.	.	.
8[e	hey	.	.	.	.	.
4e]	_	.	.	.	.	.
4[B	hmm	.	.	.	.	.
=98	=98	=98	=98	=98	=98	=98
8B]	_	1EM	E:maj (E G# B)	.	.	piano
8B	de	.	.	.	.	.
4B	bop	.	.	.	.	.
8B	bop	.	.	.	.	.
8A	a	.	.	.	.	.
8A	well	.	.	.	.	.
8A	a	.	.	.	.	.
=99	=99	=99	=99	=99	=99	=99
4A	down	1F#m	F#:min (F# A C#)	.	.	piano
8r	.	.	.	.	.	.
8[f#	hey	.	.	.	.	.
8f#]	_	.	.	.	.	.
8[c#	hey	.	.	.	.	.
8c#]	_	.	.	.	.	.
8[B	hmm	.	.	.	.	.
=100	=100	=100	=100	=100	=100	=100
8B]	_	1DM	D:maj (D F# A)	.	.	piano
8B	de	.	.	.	.	.
4B	bop	.	.	.	.	.
8B	bop	.	.	.	.	.
8A	I	.	.	.	.	.
8A	said	.	.	.	.	.
8A	a	.	.	.	.	.
=101	=101	=101	=101	=101	=101	=101
4A	down	1AM	A:maj (A C# E)	newline	181.797	piano
8r	.	.	.	.	.	.
8[f#	hey	.	.	.	.	.
8f#]	_	.	.	.	.	.
8[c#	hey	.	.	.	.	.
8c#]	_	.	.	.	.	.
8[B	hmm	.	.	.	.	.
=102	=102	=102	=102	=102	=102	=102
8B]	_	1EM	E:maj (E G# B)	.	.	piano
8B	de	.	.	.	.	.
4B	bop	.	.	.	.	.
8B	bop	.	.	.	.	.
8A	a	.	.	.	.	.
8A	well	.	.	.	.	.
8A	a	.	.	.	.	.
=103	=103	=103	=103	=103	=103	=103
8A	down	1F#m	F#:min (F# A C#)	.	.	piano
4r	.	.	.	.	.	.
8[c#	hey	.	.	.	.	.
8c#]	_	.	.	.	.	.
8[B	hey	.	.	.	.	.
8B]	_	.	.	.	.	.
8[B	oh	.	.	.	.	.
=104	=104	=104	=104	=104	=104	=104
8B]	_	1DM	D:maj (D F# A)	.	.	piano
8A	a	.	.	.	.	.
4A	bop	.	.	.	.	.
4A	bop	.	.	.	.	.
4A	yeah	.	.	.	.	.
=105	=105	=105	=105	=105	=105	=105
*	*	*>_fadeout	*>_fadeout	*>_fadeout	*>_fadeout	*>_fadeout
4r	.	1AM	A:maj (A C# E)	newline	188.848	piano
8r	.	.	.	.	.	.
8[e	hey	.	.	.	.	.
4e]	_	.	.	.	.	.
4[B	hmm	.	.	.	.	.
=106	=106	=106	=106	=106	=106	=106
8B]	_	1EM	E:maj (E G# B)	.	.	piano
8B	hey	.	.	.	.	.
4r	.	.	.	.	.	.
8r	.	.	.	.	.	.
8[a	say'n	.	.	.	.	.
8a]	_	.	.	.	.	.
8[f#	down	.	.	.	.	.
=107	=107	=107	=107	=107	=107	=107
8f#]	_	1F#m	F#:min (F# A C#)	.	.	piano
8[e	down	.	.	.	.	.
8e]	_	.	.	.	.	.
8[c#	down	.	.	.	.	.
8c#]	_	.	.	.	.	.
8[B	down	.	.	.	.	.
8B]	_	.	.	.	.	.
8B	down	.	.	.	.	.
=108	=108	=108	=108	=108	=108	=108
4A	_	1DM	D:maj (D F# A)	.	.	piano
4r	.	.	.	.	.	.
8r	.	.	.	.	.	.
8[a	hey	.	.	.	.	.
8a]	_	.	.	.	.	.
8[f#	down	.	.	.	.	.
=109	=109	=109	=109	=109	=109	=109
8f#]	_	1AM	A:maj (A C# E)	newline	196.013	guitar
8[e	down	.	.	.	.	.
4e]	_	.	.	.	.	.
2r	.	.	.	.	.	.
=110	=110	=110	=110	=110	=110	=110
2r	.	1EM	E:maj (E G# B)	.	.	guitar
8r	.	.	.	.	.	.
8[a	Say'n	.	.	.	.	.
8a]	_	.	.	.	.	.
8[f#	down	.	.	.	.	.
=111	=111	=111	=111	=111	=111	=111
8f#]	_	1F#m	F#:min (F# A C#)	.	.	guitar
8[e	down	.	.	.	.	.
8e]	_	.	.	.	.	.
8[c#	down	.	.	.	.	.
8c#]	_	.	.	.	.	.
8[B	down	.	.	.	.	.
8B]	_	.	.	.	.	.
8B	down	.	.	.	.	.
=112	=112	=112	=112	=112	=112	=112
4A	_	1DM	D:maj (D F# A)	.	.	guitar
4r	.	.	.	.	.	.
8r	.	.	.	.	.	.
8[c#	hey	.	.	.	.	.
8c#]	_	.	.	.	.	.
8[B	hey	.	.	.	.	.
=113	=113	=113	=113	=113	=113	=113
8B]	_	1AM	A:maj (A C# E)	newline	203.175	guitar
8B	hmm	.	.	.	.	.
8A	_	.	.	.	.	.
2r	.	.	.	.	.	.
8r	.	.	.	.	.	.
=114	=114	=114	=114	=114	=114	=114
1r	.	1EM	E:maj (E G# B)	.	.	guitar
=115	=115	=115	=115	=115	=115	=115
1r	.	1F#m	F#:min (F# A C#)	.	.	guitar
=116	=116	=116	=116	=116	=116	=116
1r	.	1DM	D:maj (D F# A)	.	.	guitar
r;	.	1r;	r	.	205.38	r
r;	.	1r;	r	.	211.984	r
*-	*-	*-	*-	*-	*-	*-
!!!BillboardChartDate: 1985/11/09
!!!BillboardPeak: 9
!!!BillboardWeeksOnChart: 13
!!!COC: Bruce Springsteen
!!!ENC: Nathaniel Condit-Schultz
!!!EST: Awating manual error checking and editing.
!!!OTL: I m Goin  Down
!!!RDF**chordsym: original McGill chord annotation + (implied pitch class set, with bass pitch in first position)
!!!RDF**harmony: **recip + pitch class of root + harmonic quality
!!!RDF**leadinstrument: original McGill primary instrumentation annotation
!!!RDF**phrase: newline = linebreak in original McGill transcription
!!!RDF**timestamp: McGill audio timestamp in seconds
!!!RDT: 2017/01/12/
!!!SampleActualRank: 32
!!!SampleID#: 0426
!!!SampleTargetRank: 32
